X:0162
T:La Nouvelle Angloise.
M:2/4
L:1/16
Q:1/4=112
I: :: ::
Z:Jack Campin * www.campin.me.uk * 2009
K:G
G2Bd cAFD| GBdg  d2cB|ceAc BdGB|AcAF  G2[G2G,2]:|
d2Bc d2Bc| dgfe  e2d2|g2ge fafd|ege^c d2D2      |
G2Bd cAFD|(GBdg) d2cB|ceAc BdGB|AcFA  G2[G2G,2]|]

